build/assets/img/svg/icon-arrow-11.svg

<svg width="162" height="152" viewBox="0 0 162 152" fill="none" xmlns="http://www.w3.org/2000/svg">
<path d="M159.618 89.9575L157.462 93.1423L151.721 89.26L153.877 86.0752L159.618 89.9575ZM146.657 81.7553L144.5 84.9401C142.039 83.3931 139.741 82.1673 137.61 80.4449L139.767 77.26C142.065 78.4858 144.526 80.0329 146.657 81.7553ZM132.383 72.619L130.227 75.8038C127.766 74.2568 125.468 73.031 123.17 71.8052L124.833 68.4745C127.624 69.8461 130.085 71.3932 132.383 72.619ZM117.445 64.6513L115.782 67.982C113.484 66.7562 110.856 65.7058 108.227 64.6554L109.891 61.3248C112.519 62.3751 115.147 63.4255 117.445 64.6513ZM102.006 58.1736L100.505 61.8255C97.8771 60.7751 95.4117 60.0459 92.4532 59.171L93.6236 55.6945C96.4191 56.2482 99.3775 57.1232 102.006 58.1736ZM85.4044 53.5366L84.3969 57.3343C81.6014 56.7806 78.806 56.2269 76.1734 55.9944L76.8507 52.372C79.8134 52.4291 82.6089 52.9829 85.4044 53.5366ZM68.46 51.5286L68.2758 55.2968C65.3131 55.2397 62.8435 55.3285 60.0437 55.5926L59.8978 51.9998C62.5346 51.4144 65.4973 51.4715 68.46 51.5286ZM50.6754 52.8218L51.3144 56.5604C48.6775 57.1457 45.5477 57.5853 43.0738 58.4919L42.1047 54.9287C44.9087 53.8467 47.8756 53.0859 50.6754 52.8218ZM33.8599 57.6781L35.1592 61.0658C33.0154 61.797 30.7045 63.0249 28.7237 64.0773L27.7333 64.6036L26.1039 61.3912L27.4244 60.6896C29.4052 59.6372 31.386 58.5847 33.8599 57.6781ZM20.4661 69.2804C18.3181 70.8294 16.0029 72.8752 14.0179 74.7455L11.3981 72.0593C13.7133 70.0136 15.6983 68.1433 18.0135 66.0976L20.4661 69.2804Z" fill="black"/>
<path d="M31.3394 76.5555L31.6813 73.126L13.3558 73.1182L15.069 55.1569L11.6338 54.952L9.08491 77.011L31.3394 76.5555Z" fill="black"/>
</svg>

<svg width="162" height="152" fill="none" xmlns="http://www.w3.org/2000/svg"><path d="M159.618 89.957l-2.156 3.185-5.741-3.882 2.156-3.185 5.741 3.882zm-12.961-8.202L144.5 84.94c-2.461-1.547-4.759-2.773-6.89-4.495l2.157-3.185c2.298 1.226 4.759 2.773 6.89 4.495zm-14.274-9.136l-2.156 3.185c-2.461-1.547-4.759-2.773-7.057-3.999l1.663-3.33c2.791 1.371 5.252 2.918 7.55 4.144zm-14.938-7.968l-1.663 3.331c-2.298-1.226-4.926-2.276-7.555-3.327l1.664-3.33c2.628 1.05 5.256 2.1 7.554 3.326zm-15.439-6.477l-1.501 3.651c-2.628-1.05-5.093-1.78-8.052-2.654l1.17-3.477a48.736 48.736 0 018.383 2.48zm-16.602-4.637l-1.007 3.797c-2.796-.553-5.591-1.107-8.224-1.34l.678-3.622c2.962.057 5.758.61 8.553 1.165zM68.46 51.529l-.184 3.768a69.25 69.25 0 00-8.232.296L59.898 52c2.637-.586 5.6-.529 8.562-.471zm-17.785 1.293l.64 3.738c-2.637.586-5.767 1.025-8.241 1.932l-.97-3.563c2.805-1.082 5.772-1.843 8.571-2.107zM33.86 57.678l1.3 3.388c-2.145.731-4.455 1.959-6.436 3.011l-.99.527-1.63-3.213 1.32-.701c1.981-1.053 3.962-2.105 6.436-3.012zM20.466 69.28c-2.148 1.55-4.463 3.595-6.448 5.466l-2.62-2.687c2.315-2.045 4.3-3.916 6.616-5.961l2.452 3.182z" fill="#000"/><path d="M31.34 76.555l.341-3.429-18.325-.008 1.713-17.961-3.435-.205-2.55 22.059 22.255-.456z" fill="#000"/></svg>
